X:50
T:The Honeymoon
R:Reel
S:Seamus Quinn, Fermanagh (fiddle).
D:From RTE Broadcast, Christmas 1996
H:'e3's in part 2 are unisons
N:As played
M:4/4
Z:Bernie Stocks
K:G
dc | BG~G2 DGGA | Bdef gedc | BG~G2 DGGA | BedB A2dc | BG~G2 DGGA | 
Bdef {a}gfga | bgag {a}gfed | (3.e.f.gdB A2dc | BcAG DG~G2 | Bdef gedc | 
dBAG DG~G2 | BedB A2dc | (3.B.d.B AG DG~G2 | Bdef gfga | bgag {a}gfed | egdB ABcd || 
e3f edBA | ~B3d ~g3d | BG~G2 DGGA | BedB A2(3.B.c.d | ed^cf edBA | Bdef gfga | 
bgag {a}gfed | (3.e.f.g dB A2Bd | e3f edBA | Bdef ~g3d | BG~G2 DGGA | 
BedB A2(3.B.c.d | ed^cf edBA | Bdef ~g3a | {b}(3agf {a}gf gfed | egdB A2dc ||
<end>
<start>
